SVG_Azure_Grouped/Application/App Service Quickstart.svg

<?xml version="1.0" encoding="UTF-8" standalone="no"?>
<!-- Generated by Microsoft Visio, SVG Export App Service Quickstart.svg Page-1 -->

<svg
   xmlns:dc="http://purl.org/dc/elements/1.1/"
   xmlns:cc="http://creativecommons.org/ns#"
   xmlns:rdf="http://www.w3.org/1999/02/22-rdf-syntax-ns#"
   xmlns:svg="http://www.w3.org/2000/svg"
   xmlns="http://www.w3.org/2000/svg"
   xmlns:sodipodi="http://sodipodi.sourceforge.net/DTD/sodipodi-0.dtd"
   xmlns:inkscape="http://www.inkscape.org/namespaces/inkscape"
   width="0.7873612in"
   height="0.55110991in"
   viewBox="0 0 56.690144 39.679989"
   xml:space="preserve"
   class="st2"
   version="1.1"
   id="svg19"
   sodipodi:docname="App Service Quickstart.svg"
   style="font-size:12px;overflow:visible;color-interpolation-filters:sRGB;fill:none;fill-rule:evenodd;stroke-linecap:square;stroke-miterlimit:3"
   inkscape:version="0.92.5 (2060ec1f9f, 2020-04-08)"><metadata
   id="metadata25"><rdf:RDF><cc:Work
       rdf:about=""><dc:format>image/svg+xml</dc:format><dc:type
         rdf:resource="http://purl.org/dc/dcmitype/StillImage" /></cc:Work></rdf:RDF></metadata><defs
   id="defs23" /><sodipodi:namedview
   pagecolor="#ffffff"
   bordercolor="#666666"
   borderopacity="1"
   objecttolerance="10"
   gridtolerance="10"
   guidetolerance="10"
   inkscape:pageopacity="0"
   inkscape:pageshadow="2"
   inkscape:window-width="640"
   inkscape:window-height="480"
   id="namedview21"
   showgrid="false"
   inkscape:zoom="2.0595612"
   inkscape:cx="37.795244"
   inkscape:cy="11.938493"
   inkscape:window-x="0"
   inkscape:window-y="0"
   inkscape:window-maximized="0"
   inkscape:current-layer="svg19" />
	<style
   type="text/css"
   id="style2">
	<![CDATA[
		.st1 {fill:#59b4d9;stroke:none;stroke-linecap:butt;stroke-width:12.24}
		.st2 {fill:none;fill-rule:evenodd;font-size:12px;overflow:visible;stroke-linecap:square;stroke-miterlimit:3}
	]]>
	</style>

	<g
   id="g17"
   transform="translate(-12.239994,-12.2443)">
		<title
   id="title4">Page-1</title>
		<g
   id="group14607-1"
   transform="translate(12.24,-34.0157)">
			<title
   id="title6">App Service Quickstart.14607</title>
			<g
   id="group14608-2">
				<title
   id="title8">Sheet.14608</title>
				<g
   id="shape14609-3">
					<title
   id="title10">Sheet.14609</title>
					<path
   d="m 48.9,63.38 c 0.29,-1.14 0.44,-2.31 0.44,-3.51 0,-4.7 -2.24,-8.85 -5.69,-11.35 l -5.42,9.4 c -0.22,0.35 -0.05,0.64 0.36,0.64 l 6.96,-0.04 c 0.4,-0.02 0.5,0.24 0.23,0.55 L 27.83,80.15 c -0.27,0.31 -0.38,0.26 -0.22,-0.13 l 5.67,-14.24 c 0.13,-0.37 -0.06,-0.69 -0.46,-0.69 H 27.3 c -0.39,0 -0.61,-0.29 -0.45,-0.7 l 6.6,-18.13 c -4.46,0.86 -8.13,4.02 -9.84,8.23 A 9.42935,9.70592 -180 0 0 16.4,51.04 c -5.21,0 -9.46,4.38 -9.46,9.8 0,0.95 0.13,1.84 0.37,2.68 A 11.2526,11.5827 -180 0 0 0,74.38 c 0,6.38 4.99,11.56 11.15,11.56 h 34.39 c 6.18,0 11.15,-5.18 11.15,-11.56 a 11.154,11.4811 -180 0 0 -7.79,-11 z"
   class="st1"
   id="path12"
   inkscape:connector-curvature="0"
   style="fill:#59b4d9;stroke:none;stroke-width:12.23999977;stroke-linecap:butt" />
				</g>
			</g>
		</g>
	</g>
</svg>

<?xml version="1.0" encoding="UTF-8" standalone="no"?>
<!DOCTYPE svg PUBLIC "-//W3C//DTD SVG 1.1//EN" "http://www.w3.org/Graphics/SVG/1.1/DTD/svg11.dtd">
<!-- Generated by Microsoft Visio, SVG Export App Service Quickstart.svg Page-1 -->
<svg xmlns="http://www.w3.org/2000/svg" xmlns:xlink="http://www.w3.org/1999/xlink" xmlns:ev="http://www.w3.org/2001/xml-events"
		width="1.1274in" height="1.19362in" viewBox="0 0 81.173 85.9408" xml:space="preserve" color-interpolation-filters="sRGB"
		class="st2">
	<style type="text/css">
	<![CDATA[
		.st1 {fill:#59b4d9;stroke:none;stroke-linecap:butt;stroke-width:12.24}
		.st2 {fill:none;fill-rule:evenodd;font-size:12px;overflow:visible;stroke-linecap:square;stroke-miterlimit:3}
	]]>
	</style>

	<g>
		<title>Page-1</title>
		<g id="group14250-1" transform="translate(12.24,-34.0157)">
			<title>App Service Quickstart.14250</title>
			<g id="group14251-2">
				<title>Sheet.14251</title>
				<g id="shape14252-3">
					<title>Sheet.14252</title>
					<path d="M48.9 63.38 C49.19 62.24 49.34 61.07 49.34 59.87 C49.34 55.17 47.1 51.02 43.65 48.52 L38.23 57.92 C38.01
								 58.27 38.18 58.56 38.59 58.56 L45.55 58.52 C45.95 58.5 46.05 58.76 45.78 59.07 L27.83 80.15 C27.56
								 80.46 27.45 80.41 27.61 80.02 L33.28 65.78 C33.41 65.41 33.22 65.09 32.82 65.09 L27.3 65.09 C26.91
								 65.09 26.69 64.8 26.85 64.39 L33.45 46.26 C28.99 47.12 25.32 50.28 23.61 54.49 A9.42935 9.70592
								 -180 0 0 16.4 51.04 C11.19 51.04 6.94 55.42 6.94 60.84 C6.94 61.79 7.07 62.68 7.31 63.52 A11.2526
								 11.5827 -180 0 0 0 74.38 C0 80.76 4.99 85.94 11.15 85.94 L45.54 85.94 C51.72 85.94 56.69 80.76 56.69
								 74.38 A11.154 11.4811 -180 0 0 48.9 63.38 Z" class="st1"/>
				</g>
			</g>
		</g>
	</g>
</svg>
